!!!COM: Clementi, Muzio
!!!CDT: 1752/01/23/-1832/03/10/
!!!ODT: ~1800///
!!!OTL: Sonata No. 6 in D Major, Op. 36, Mvmt. 2
!!!OPS: Op. 36
!!!ONM: No. 6
!!!OMV: 2. Allegro spirito
!!!AGN: Rondo
**kern	**dynam	**kern	**dynam
*staff2	*staff2	*staff1	*staff1
*Ipiano	*Ipiano	*Ipiano	*Ipiano
*>[A,B,A]	*>[A,B,A]	*>[A,B,A]	*>[A,B,A]
*>A	*>A	*>A	*>A
*clefF4	*clefF4	*clefG2	*clefG2
*k[f#c#]	*k[f#c#]	*k[f#c#]	*k[f#c#]
*M6/8	*M6/8	*M6/8	*M6/8
4r	.	8f#/ 8a/L	.
.	.	8f#/ 8a/	.
8r	.	8f#/ 8a/J	.
=1	=1	=1	=1
8D\L	p	4g/ 4b/	.
8D\	.	.	.
8D\J	.	8f#/ 8a/	.
4r	.	8dd/L	.
.	.	8a/	.
8r	.	8f#/J	.
=2	=2	=2	=2
*	*	*^	*
8D\L	.	8a/L	4e\	.
8D\	.	8g/	.	.
8D\J	.	8f#/J	8d\	.
4r	.	4r	8dd\ 8ff#\L	.
.	.	.	8ee\ 8gg\	.
8r	.	8r	8ff#\ 8aa\J	.
*clefG2	*clefG2	*	*	*
*	*	*v	*v	*
=3	=3	=3	=3
8g/L	.	8ff#\ (8aa\L	.
8g/	.	8ee\ 8gg\)	.
8g/J	.	8ee\ 8gg\J	.
8g#/L	.	8dd\ 8ff#\L	.
8g#/	.	8cc#\ 8ee\	.
8g#/J	.	8dd\ 8ff#\J	.
=4	=4	=4	=4
8a/L	.	8cc#\ 8ee\	.
8a/	.	8r	.
8a/J	.	8r	.
4r	.	8f#/ 8a/L	.
.	.	8f#/ 8a/	.
8r	.	8f#/ 8a/J	.
*clefF4	*clefF4	*	*
=5	=5	=5	=5
8D\L	.	(4g/ 4b/	.
8D\	.	.	.
8D\J	.	8f#/) 8a/	.
4r	.	8dd/L	.
.	.	(8a/	.
8r	.	8f#/J)	.
=6	=6	=6	=6
*	*	*^	*
8D\L	.	8a/L	4e\	.
8D\	.	8g/	.	.
8D\J	.	8f#/J	8d\	.
4r	.	16aa\LL	4.r	.
.	.	16gg\	.	.
.	.	16ff#\	.	.
.	.	16ee\	.	.
8r	.	16dd\	.	.
.	.	16cc#\JJ	.	.
*clefG2	*clefG2	*	*	*
*	*	*v	*v	*
=7	=7	=7	=7
8g/L	.	8b\L	.
8g/	.	8b\	.
8g/J	.	8b\J	.
.	.	(ddq/	.
8A/ 8e/ 8g/L	.	8cc#\L	.
8A/ 8e/ 8g/	.	8b\	.
8A/ 8e/ 8g/J	.	8cc#\J	.
=8	=8	=8	=8
4d/ 4f#/	.	8dd\L)	.
.	.	16ff#\L	.
.	.	16dd\	.
8r	.	16ff#\	.
.	.	16dd\JJ	.
4r	.	8a/L	f
.	.	8f#/ 8a/	.
8r	.	8f#/ 8a/J	.
*clefF4	*clefF4	*	*
=9	=9	=9	=9
8DD/L	f	4g/ 4b/	.
8D/	.	.	.
8D/J	.	8f#/ 8a/	.
4r	.	16dd/LL	.
.	.	16a/	.
.	.	16dd/	.
.	.	16a/J	.
8r	.	8f#/J	.
=10	=10	=10	=10
*	*	*^	*
8DD/L	.	(8a/L	4e\	.
8D/	.	8g/	.	.
8D/J	.	8f#/J	8d\	.
4r	.	8dd\ (8ff#\L)	4.r	.
.	.	8ee\ 8gg\	.	.
8r	.	8ff#\ 8aa\J)	.	.
*clefG2	*clefG2	*	*	*
*	*	*v	*v	*
=11	=11	=11	=11
8G/L	.	8ff#\ (8aa\L	.
8g/	.	8ee\ 8gg\)	.
8g/J	.	8ee\ 8gg\J	.
.	.	ggq/	.
8G#/L	.	8dd\ 8ff#\L	.
8g#/	.	8cc#\ 8ee\	.
8g#/J	.	8dd\ 8ff#\J	.
=12	=12	=12	=12
8A/L	.	8cc#\ 8ee\	.
8a/	.	8r	.
8a/J	.	8r	.
4r	.	8f#/ 8a/L	.
.	.	8f#/ 8a/	.
8r	.	8f#/ 8a/J	.
*clefF4	*clefF4	*	*
=13	=13	=13	=13
16DD/LL	.	4g/ 4b/	ff
16D/	.	.	.
16C#/	.	.	.
16D/	.	.	.
16C#/	.	8f#/ 8a/	.
16D/JJ	.	.	.
8DD/	.	8dd/L	.
8r	.	8a/	.
8r	.	8f#/J	.
=14	=14	=14	=14
*	*	*^	*
16DD/LL	.	8a/L	4e\	.
16D/	.	.	.	.
16C#/	.	8g/	.	.
16D/	.	.	.	.
16C#/	.	8f#/J	8d\	.
16D/JJ	.	.	.	.
8DD/	.	16aa\LL	4.r	.
.	.	16gg\	.	.
8r	.	16ff#\	.	.
.	.	16ee\	.	.
8r	.	16dd\	.	.
.	.	16cc#\JJ	.	.
*	*	*v	*v	*
=15	=15	=15	=15
16GG\LL	.	8b\L	.
16G\	.	.	.
16E\	.	8b\	.
16G\	.	.	.
16E\	.	8b\J	.
16G\JJ	.	.	.
.	.	ddq/	.
16AA\ 16E\LL	.	8cc#\L	.
16G\	.	.	.
16AA\ 16E\	.	8b\	.
16G\	.	.	.
16AA\ 16E\	.	8cc#\J	.
16G\JJ	.	.	.
=16	=16	=16	=16
8D\ 8F#\	.	8dd\L	.
8r	.	16aa\L	.
.	.	16gg\	.
8r	.	16ff#\	.
.	.	16ee\JJ	.
4r	.	16dd/LL	.
.	.	16cc#/	.
.	.	16b/	.
.	.	16a/	.
8r	.	16g/	.
.	.	16f#/JJ	.
=17	=17	=17	=17
8G\ 8d\L	.	8e/L	p
8G\ 8d\	.	8e/	.
8G\ 8d\J	.	8e/J	.
.	.	gq/LL	.
.	.	aq/JJ	.
8A\ 8c#\L	.	(8b/L	.
8A\ 8c#\	.	8a/	.
8A\ 8c#\J	.	8g/J)	.
=18	=18	=18	=18
8B\ 8d\L	.	8f#/	.
8B\ 8d\	.	8r	.
8B\ 8d\J	.	8r	.
8F#\ 8d\L	.	16dd/LL	.
.	.	16cc#/	.
8F#\ 8d\	.	16b/	.
.	.	16a/	.
8F#\ 8d\J	.	16g/	.
.	.	16f#/JJ	.
=19	=19	=19	=19
8G\ 8d\L	.	8e/L	.
8G\ 8d\	.	8e/	.
8G\ 8d\J	.	8e/J	.
.	.	gq/LL	.
.	.	aq/JJ	.
8A\ 8c#\L	.	8b/L	.
8A\ 8c#\	.	8a/	.
8A\ 8c#\J	.	8g/J	.
=20	=20	=20	=20
8B\ 8d\L	.	16f#/LL	f
.	.	16dd/	.
8B\ 8d\	.	16f#/	.
.	.	16dd/	.
8B\ 8d\J	.	16f#/	.
.	.	16dd/JJ	.
8A\ 8cn\L	.	16f#/LL	.
.	.	16dd#/	.
8A\ 8c\	.	16f#/	.
.	.	16dd#/	.
8A\ 8c\J	.	16f#/	.
.	.	16dd#/JJ	.
=21	=21	=21	=21
8G\ 8B\L	.	16e/LL	.
.	.	16ee/	.
8G\ 8B\	.	16e/	.
.	.	16ee/	.
8G\ 8B\J	.	16e/	.
.	.	16ee/JJ	.
8AA\ 8A\L	.	16cc#\LL	ff
.	.	16aa\	.
8AA\ 8A\	.	16cc#\	.
.	.	16aa\	.
8AA\ 8A\J	.	16cc#\	.
.	.	16aa\JJ	.
=22	=22	=22	=22
8D\ 8F#\	.	8dd'\L	.
8r	.	16aa\L	.
.	.	16ff#\	.
8AA\ 8A\	.	16gg\	.
.	.	16ee\JJ	.
8D\ 8F#\	.	8dd'\L	.
8r	.	16aa\L	.
.	.	16ff#\	.
8AA\ 8A\	.	16gg\	.
.	.	16ee\JJ	.
=23	=23	=23	=23
8D\ 8F#\	.	8dd\	.
8D/L	.	8ff#\ 8ddd\L	.
8AA/J	.	8ff#\ 8ddd\J	.
8FF#/L	.	8ff#\ 8ddd\L	.
8AA/	.	8ff#\ 8ddd\	.
8FF#/J	.	8ff#\ 8ddd\J	.
=24	=24	=24	=24
4DD/	.	4ff#\ 4ddd\	.
8r	.	8r	.
=	=	=	=
*>B	*>B	*>B	*>B
4r	.	8dd\ 8ff#\L	p
.	.	8dd\ 8ff#\	.
8r	.	8dd\ 8ff#\J	.
*clefG2	*clefG2	*	*
=25	=25	=25	=25
8g/L	.	4cc#\ 4ee\	.
8g/	.	.	.
8g/J	.	8b\ 8dd\	.
4r	.	8ee\ 8gg\L	.
.	.	8ee\ 8gg\	.
8r	.	8ee\ 8gg\J	.
*clefF4	*clefF4	*	*
=26	=26	=26	=26
8A\L	pp	4dd\ 4ff#\	.
8A\	.	.	.
8A\J	.	8cc#\ 8ee\	.
4r	.	8ff#\ 8aa\L	.
.	.	8ff#\ 8aa\	.
8r	.	8ff#\ 8aa\J	.
=27	=27	=27	=27
8BB/L	.	4ee\ 4gg\	.
8BB/	.	.	.
8BB/J	.	8dd\ 8ff#\	.
8G#\L	.	16ddd\LL	.
.	.	16ee\	.
8B\	.	16ddd\	.
.	.	16ee\	.
8E\J	.	16ddd\	.
.	.	16ee\JJ	.
=28	=28	=28	=28
8A\L	.	16ccc#\LL	.
.	.	16ee\	.
8c#\	.	16ccc#\	.
.	.	16ee\	.
8E\J	.	16ccc#\	.
.	.	16ee\JJ	.
8B\L	.	16gg#\LL	.
.	.	16ee\	.
8d\	.	16gg#\	.
.	.	16ee\	.
8E\J	.	16gg#\	.
.	.	16ee\JJ	.
=29	=29	=29	=29
8c#\L	.	16aa\LL	.
.	.	16ee\	.
8B\	.	16bb\	.
.	.	16ee\	.
8A\J	.	16ccc#\	.
.	.	16ee\JJ	.
8G#\L	.	16ddd\LL	.
.	.	16ee\	.
8B\	.	16ddd\	.
.	.	16ee\	.
8E\J	.	16ddd\	.
.	.	16ee\JJ	.
=30	=30	=30	=30
8A\L	.	16ccc#\LL	.
.	.	16eee\	.
8c#\	.	16ddd\	.
.	.	16ccc#\	.
8E\J	.	16bb\	.
.	.	16aa\JJ	.
8B\L	.	16gg#\LL	.
.	.	16ff#\	.
8d\	.	16ee\	.
.	.	16dd\	.
8E\J	.	16cc#\	.
.	.	16b\JJ	.
=31	=31	=31	=31
8AA\L	.	16ccn\LL	ff
.	.	16a\	.
8A\	.	16cc\	.
.	.	16a\	.
8A\J	.	16cc\	.
.	.	16a\JJ	.
8GGn\L	.	16cc\LL	.
.	.	16a\	.
8Gn\	.	16cc\	.
.	.	16a\	.
8G\J	.	16cc\	.
.	.	16a\JJ	.
=32	=32	=32	=32
8FFn\L	.	16ccn\LL	.
.	.	16a\	.
8Fn\	.	16cc\	.
.	.	16a\	.
8F\J	.	16cc\	.
.	.	16a\JJ	.
8DD#/L	.	16cc\LL	.
.	.	16a\	.
8D#/	.	16cc\	.
.	.	16a\	.
8D#/J	.	16cc\	.
.	.	16a\JJ	.
=33	=33	=33	=33
16EE\LL	.	8g#/ 8b/	.
16E\	.	.	.
16D#\	.	8r	.
16E\	.	.	.
16D#\	.	8r	.
16E\JJ	.	.	.
16EE\LL	.	8ccn\ 8ee\L	.
16E\	.	.	.
16D#\	.	8cc\ 8ee\	.
16E\	.	.	.
16D#\	.	8cc\ 8ee\J	.
16E\JJ	.	.	.
=34	=34	=34	=34
16EE\LL	.	8b\ 8ddn\	.
16E\	.	.	.
16D#\	.	8r	.
16E\	.	.	.
16D#\	.	8r	.
16E\JJ	.	.	.
16EE\LL	.	8a\ 8ccn\L	.
16E\	.	.	.
16D#\	.	8a\ 8cc\	.
16E\	.	.	.
16D#\	.	8a\ 8cc\J	.
16E\JJ	.	.	.
=35	=35	=35	=35
16EE\LL	.	8g#/ 8b/	.
16E\	.	.	.
16D#\	.	8r	.
16E\	.	.	.
16D#\	.	8r	.
16E\JJ	.	.	.
16EE\LL	.	8d#/ 8a/L	.
16E\	.	.	.
16D#\	.	8d#/ 8a/	.
16E\	.	.	.
16D#\	.	8d#/ 8a/J	.
16E\JJ	.	.	.
=36	=36	=36	=36
16EE\LL	.	8e/ 8g#/L	.
16E\	.	.	.
16D#\	.	8e/ 8g#/	.
16E\	.	.	.
16D#\	.	8e/ 8g#/J	.
16E\JJ	.	.	.
16EE\LL	.	8A/ 8d#/L	.
16E\	.	.	.
16D#\	.	8A/ 8d#/	.
16E\	.	.	.
16D#\	.	8A/ 8d#/J	.
16E\JJ	.	.	.
=37	=37	=37	=37
2.EE/ 2.E/	.	(8G#/L	.
.	.	8e/	.
.	.	8B/J	.
.	.	8g#/L	.
.	.	8e/	.
.	.	8b/J)	.
=38	=38	=38	=38
2.r	.	8g#\L	.
.	.	8ee\	.
.	.	8dd#\J	.
.	.	8ddn\L	.
.	.	8cc#\	.
.	.	8b\J	.
*clefG2	*clefG2	*	*
=39	=39	=39	=39
8c#/ 8e/L	.	4a/	p
8c#/ 8e/	.	.	.
8c#/ 8e/J	.	8a/	.
.	.	bq/	.
8c#/ 8e/L	.	8a/L	.
8c#/ 8e/	.	8g#/	.
8c#/ 8e/J	.	8a/J	.
=40	=40	=40	=40
8d/ 8e/L	.	(4cc#\	.
8d/ 8e/	.	.	.
8d/ 8e/J	.	8b\)	.
8d/ 8e/L	.	(8ee\L	.
8d/ 8e/	.	8ff#\	.
8d/ 8e/J	.	8gg#\J)	.
=41	=41	=41	=41
8c#/ 8e/L	.	8aa\L	.
8c#/ 8e/	.	8ee\	.
8c#/ 8e/J	.	8cc#\J	.
8c#/ 8e/L	.	8a/L	.
8c#/ 8e/	.	8g#/	.
8c#/ 8e/J	.	8a/J	.
=42	=42	=42	=42
8d/ 8e/L	.	4cc#\	.
8d/ 8e/	.	.	.
8d/ 8e/J	.	8b\	.
8d/ 8e/L	.	16eee\LL	.
.	.	16ddd\	.
8d/ 8e/	.	16ccc#\	.
.	.	16bb\	.
8d/ 8e/J	.	16aa\	.
.	.	16gg#\JJ	.
=43	=43	=43	=43
8c#/ 8e/L	.	16aa\LL	.
.	.	16bb\	.
8c#/ 8e/	.	16ccc#\	.
.	.	16bb\	.
8c#/ 8e/J	.	16aa\	.
.	.	16gg#\JJ	.
8c#/ 8e/L	.	16ff#\LL	.
.	.	16ee\	.
8c#/ 8e/	.	16dd\	.
.	.	16cc#\	.
8c#/ 8e/J	.	16b\	.
.	.	16a#\JJ	.
=44	=44	=44	=44
4d/ 4f#/	.	8b\L	.
.	.	8b\	.
8r	.	8b\J	.
4r	.	(8b\L	.
.	.	8dd\	.
8r	.	8ff#\J)	.
*clefF4	*clefF4	*	*
=45	=45	=45	=45
8E\ 8c#\L	.	(4a/	.
8E\ 8c#\	.	.	.
8E\ 8c#\J	.	16ee'\LL	.
.	.	16cc#\JJ	.
8E\ 8G#\L	.	4b\	.
8E\ 8G#\	.	.	.
8E\ 8G#\J	.	16dd\LL	.
.	.	16b\JJ)	.
=46	=46	=46	=46
*^	*	*	*
8AA/L	4.AA\	.	4a/	.
8E/	.	.	.	.
8A/J	.	.	16cc#\LL	.
.	.	.	16a\JJ	.
8AA/L	4.AA\	.	8e/L	.
8E/	.	.	8e/	.
8A/J	.	.	8e/J	.
=47	=47	=47	=47	=47
8AA/L	4.AA\	.	(8dd\L	.
8E/	.	.	8b\	.
8A/J	.	.	8g#\J	.
8AA/L	4.AA\	.	8e/L	.
8E/	.	.	8f#/	.
8A/J	.	.	8g#/J)	.
=48	=48	=48	=48	=48
8AA/L	4.AA\	.	4a/	.
8E/	.	.	.	.
8A/J	.	.	16cc#\LL	.
.	.	.	16a\JJ	.
8AA/L	4.AA\	.	8e/L	.
8E/	.	.	8e/	.
8A/J	.	.	8e/J	.
=49	=49	=49	=49	=49
8AA/L	4.AA\	.	(8dd\L	.
8E/	.	.	8b\	.
8A/J	.	.	8g#\J	.
8AA/L	4.AA\	.	8e/L	.
8E/	.	.	8f#/	.
8A/J	.	.	8g#/J)	.
*v	*v	*	*	*
=50	=50	=50	=50
8AA/	.	16a\LL	.
.	.	16cc#\	.
8r	.	16ee\	.
.	.	16cc#\	.
8r	.	16ee\	.
.	.	16cc#\JJ	.
8DD/ 8D/	.	16b\LL	.
.	.	16dd\	.
8r	.	16ff#\	.
.	.	16dd\	.
8r	.	16ff#\	.
.	.	16dd\JJ	.
=51	=51	=51	=51
8EE/ 8E/	.	16cc#\LL	.
.	.	16ee\	.
8r	.	16cc#\	.
.	.	16ee\	.
8r	.	16a\	.
.	.	16cc#\JJ	.
8EE/ 8E/	.	16b\LL	.
.	.	16dd\	.
8r	.	16b\	.
.	.	16dd\	.
8r	.	16g#\	.
.	.	16b\JJ	.
=52	=52	=52	=52
*^	*	*	*
8AA/L	4.AA\	.	(8.a/L	.
8E/	.	.	.	.
.	.	.	16b/L	.
8A/J	.	.	16cc#/	.
.	.	.	16a/JJ)	.
8AA/L	4.AA\	.	(8e\L	.
8E/	.	.	8cc#\	.
8A/J	.	.	8ee\J)	.
=53	=53	=53	=53	=53
8AA/L	4.AA\	.	(8dd\L	.
8E/	.	.	8b\	.
8A/J	.	.	8g#\J	.
8AA/L	4.AA\	.	8e/L	.
8E/	.	.	8f#/	.
8A/J	.	.	8g#/J)	.
=54	=54	=54	=54	=54
8AA/L	4.AA\	.	(8.a/L	.
8E/	.	.	.	.
.	.	.	16b/L	.
8A/J	.	.	16cc#/	.
.	.	.	16a/JJ	.
8AA/L	4.AA\	.	8e\L	.
8E/	.	.	8cc#\	.
8A/J	.	.	8ee\J)	.
=55	=55	=55	=55	=55
8AA/L	4.AA\	.	8dd\L	.
8E/	.	.	16b\L	.
.	.	.	16dd\	.
8A/J	.	.	16g#\	.
.	.	.	16b\JJ	.
8AA/L	4.AA\	.	8e/L	.
8E/	.	.	8f#/	.
8A/J	.	.	8g#/J	.
*v	*v	*	*	*
=56	=56	=56	=56
8AA\L	.	16a\LL	f
.	.	16cc#\	.
8A\	.	16ee\	.
.	.	16aa\	.
8A\J	.	16ee\	.
.	.	16cc#\JJ	.
8DD/L	.	16b\LL	.
.	.	16dd\	.
8D/	.	16ff#\	.
.	.	16dd\	.
8D/J	.	16ff#\	.
.	.	16dd\JJ	.
=57	=57	=57	=57
8EE\L	.	16cc#\LL	.
.	.	16ee\	.
8E\	.	16dd\	.
.	.	16cc#\	.
8E\J	.	16b\	.
.	.	16a\JJ	.
8EE\L	.	16g#/LL	.
.	.	16f#/	.
8E\	.	16e/	.
.	.	16d/	.
8E\J	.	16c#/	.
.	.	16B/JJ	.
=58	=58	=58	=58
2.AAA/ 2.AA/	.	16A/LL	.
.	.	16B/	.
.	.	16A/	.
.	.	16G#/	.
.	.	16A/	.
.	.	16B/JJ	.
.	.	16c#/LL	.
.	.	16d/	.
.	.	16e/	.
.	.	16f#/	.
.	.	16gn/	.
.	.	16g#/JJ	.
=59	=59	=59	=59
2.r	.	16a/LL	.
.	.	16b/	.
.	.	16a/	.
.	.	16g#/	.
.	.	16a/	.
.	.	16b/JJ	.
.	.	16cc#\LL	.
.	.	16dd\	.
.	.	16ee\	.
.	.	16ff#\	.
.	.	16ggn\	.
.	.	16gg#\JJ	.
=60	=60	=60	=60
4.r	.	[2.aa\	.
8c#\ 8e\L	.	.	.
8c#\ 8e\	.	.	.
8c#\ 8e\J	.	.	.
=61	=61	=61	=61
4B\ 4d\	.	2.aa\_	.
8A\ 8c#\	.	.	.
*clefG2	*clefG2	*	*
8e/ 8g/L	.	.	.
8e/ 8g/	.	.	.
8e/ 8g/J	.	.	.
=62	=62	=62	=62
4.d/ 4.f#/	.	2.aa\]	.
4.c#/ 4.e/	.	.	.
=63	=63	=63	=63
4r	.	4r	.
8r;	.	8r;	.
=	=	=	=
*-	*-	*-	*-
!!!ENC: Craig Stuart Sapp
!!!END: 2004/11/26/
